X:1
T:The Dying Youth
M:3/4
L:1/8
K:F
 CFF| A3 AF D| C3 CF F| A3 AF D| C3 CF F| A3 AG F| C3 CF F| A3 AG F|\
 D3 z CD| F3 FD F| D C2||
